X: 1
T:The Curragh Races  "Arranged by Terry Tully"
M:C
L:1/8
Q:80
C:Traditional Irish
S:Reel
K:HP
[| {g}eA{g}c{d}A{g}eA{g}c{d}A|
{g}G{d}G{g}Bc{g}dB{g}Gg|
{a}eA{g}c{d}A{g}ef{a}ge|  !
{g}dB{g}GA{g}BA{gAGAG}A2{g}eA{g}c{d}A{g}eA{g}c{d}A|
{g}G{d}G{g}Bc{g}dB{g}GB|
{gcecG}c2{g}cA{gBeBG}B2ge|  !
{g}dB{g}GA{g}BA{gAGAG}A2|] [|
c{e}c{G}ce{a}gc{g}ec|
{gdedc}d2ge{g}dB{g}GB|  !
c{e}c{G}ce{a}gc{g}ec|
{g}dB{g}GA{g}BA{gAGAG}A2c{e}c{G}ce{a}gc{g}ec|
{gdedc}d2ge{g}dB{g}GB|  !
{gcecG}c2{g}cA{gBeBG}B2ge|
{g}dB{g}GA{g}BA{gAGAG}A2|]
